X:1
T:Title
%%score { ( 1 3 ) | ( 2 4 ) }
L:1/8
Q:1/4=84
M:6/8
K:Ab
V:1 treble nm="Grand Piano"
V:3 treble 
V:2 bass 
V:4 bass 
V:1
 [Ec][DB][Fd] [Ec][DB][CA] | [FA][EG][FB] [FA][EG][DF] | [CE][CA][EA] [=Dc][DB][Dc] | [EB]6 | %4
w: Ernest~O.~Sellers * * * * *||||
 [Ec][DB][Fd] [Ec][DB][CA] | [FA][EG][FB] [FA][EG][DF] | [CE][EA][Fd] cEB | [CA]6 | B>BB BGE | %9
w: |||||
 [CE][CA][Fd] [Ec]3 | B>BB BGE | [CE][CA][Fd] [Ec]3 | c>_c=c ecc | [FB][FB][Fc] [Fd]3 | G>GG GAB | %15
w: ||||||
 A-[EA-][DA-] [CA]3 |] %16
w: |
V:2
 [A,,A,][A,,A,][A,,A,] [A,,A,][A,,A,][A,,A,] | [D,A,][D,A,][D,A,] [D,A,][D,A,][D,A,] | %2
 [A,,A,][A,,E,][C,A,] [B,,A,][B,,F,][B,,A,] | [E,G,]6 | %4
 [A,,A,][A,,A,][A,,A,] [A,,A,][A,,A,][A,,A,] | [D,A,][D,A,][D,A,] [D,A,][D,A,][D,A,] | %6
 [A,,A,][C,A,][D,A,] [E,A,E][E,A,C][E,G,D] | [A,,A,]6 | %8
 [E,G,D]>[E,G,D][E,G,D] [E,G,D][E,B,D][E,G,D] | [A,,A,][A,,A,][A,,A,] [A,,A,]3 | %10
 [E,G,D]>[E,G,D][E,G,D] [E,G,D][E,B,D][E,G,D] | [A,,A,][A,,A,][A,,A,] [A,,A,]3 | %12
 [A,E]>[A,=D][A,E] [A,CA][A,EA][A,EA] | [D,D][D,B,][C,=A,] [B,,B,]3 | %14
 [E,B,D]>[E,B,D][E,B,D] [E,D][E,F,D][E,G,D] | z G,F, E,3 |] %16
V:3
 x6 | x6 | x6 | x6 | x6 | x6 | x6 | x6 | x6 | x6 | x6 | x6 | x6 | x6 | x6 | .[A,C]3 z3 |] %16
V:4
 x6 | x6 | x6 | x6 | x6 | x6 | x6 | x6 | x6 | x6 | x6 | x6 | x6 | x6 | x6 | A,,6 |] %16

